!!!COM: Haydn, Franz Joseph
!!!CDT: 1732/03/31-1809/05/31
!!!CNT: Austrian
!!!OTL: Sonata No. 61 in D major
!!!SCT: Hob. XVI:51
!!!OMV: 2
!!!OMD: Finale: Presto.
!!!ODT: 1794
**kern	**kern	**dynam
*staff2	*staff1	*staff1/2
*Ipiano	*Ipiano	*Ipiano
*clefF4	*clefG2	*clefG2
*k[f#c#]	*k[f#c#]	*k[f#c#]
*D:	*D:	*D:
*M3/4	*M3/4	*M3/4
*MM280	*MM280	*MM280
4CC#	4C#<`	mf
=1	=1	=1
(<4DD	(4D<	.
4FF#	4F#<	.
4AA	4A<	.
=2	=2	=2
4C#	4c#	.
4D	4d	.
4F#	4f#	.
=3	=3	=3
4.A	4.a	.
8dL	8ddL	.
8f#	8ff#	.
8dJ	8ddJ	.
=4	=4	=4
4A)	4a)	.
4r	4r	.
!	!	!LO:DY:a
(4FF#	(4A [4a	fz
=5	=5	=5
4GG)	(>[2.B 2.a])	.
(4D#	.	.
4F#	.	.
=6	=6	=6
4E	2B] 2g)	.
4G)	.	.
(4EE	(4B- [4g	fz
=7	=7	=7
4FF#)	(>)>[2.A 2.g]	.
(4C#	.	.
4E	.	.
=8	=8	=8
*	*^	*
4D	2A] 2f#)	2ryy	.
4F#)	.	.	.
(<4GG	(4f#	[4Bn	fz
!!LO:LB:g=z
=9	=9	=9	=9
4G	4e	2B]	.
4E)	4d)	.	.
(4AA	(4g	[4c#	fz
=10	=10	=10	=10
4A	4f#	2c#]	.
4F#)	4e)	.	.
(4BB	(4a	[4d	fz
=11	=11	=11	=11
4B	4g	2d]	.
4G)	4f#)	.	.
!	!	!	!LO:HP:b
4C#`	4b`	4e	fz <
*	*v	*v	*
=12	=12	=12
(4c#	4e (4a	.
4d	4fn 4g#	.
4c#	4e 4a	.
=13	=13	=13
4B	4g#/ 4dd/	.
4A)	4a 4cc#)	.
4D` 4d`	4ff#`	fz
=14	=14	=14
*^	*	*
(2A 2c#	2.E	(2a	f
4d`)	.	8bL	.
.	.	8g#J	.
=15	=15	=15	=15
(4AA^	[2.AA	4a)	.
4BB	.	4r	.
4C#	.	4gn [4ee	fz
=16	=16	=16	=16
2D	2.AA_	(>4e# 4ee]	.
.	.	4f# 4dd	.
4E	.	4en 4cc#	.
!!LO:LB:g=z
=17	=17	=17	=17
4Fn	2.AA_	4d 4b	.
4E	.	4c# 4a	.
4D	.	4B 4g#	.
=18	=18	=18	=18
4C#X)	2.AA_	4A 4a)	fz
(4D	.	(>4B 4g#	.
4E	.	4c# 4a	.
=19	=19	=19	=19
4Fn	2.AA_	4d 4b	.
4E	.	4c# 4a	.
4D	.	4B 4g#	.
=20	=20	=20	=20
4C#)	2.AA_	4A 4a)	fz
(4D	.	(>4B 4g#	.
4E	.	4c# 4a	.
=21	=21	=21	=21
4Fn	2.AA_	4d 4b	.
4E	.	4c# 4a	.
4D	.	4B 4g#	.
=22	=22	=22	=22
4C#)	4AA]	4A 4a)	ff
4CC#`	2ryy	4c#` 4a`	.
4EE`	.	4c#` 4a`	.
*v	*v	*	*
=23	=23	=23
(<4AAA\	2c# 2a	.
4BBB\)	.	.
!	!	!LO:DY:a=2:rj
4CC#`	4C#<`	fz
=24	=24	=24
!	!	!LO:DY:a=2
(<4DD	(4D<	mf
4FF#	4F#<	.
4AA	4A<	.
!!LO:LB:g=z
=25	=25	=25
4C#	4c#	.
4D	4d	.
4F#	4f#	.
=26	=26	=26
4.A	4.a	.
8dL	8ddL	.
8f#	8ff#	.
8dJ	8ddJ	.
=27	=27	=27
4A)	4a)	.
4r	4r	.
(4FF#	(4A [4a	fz
=28	=28	=28
4GG)	[2.B 2.a_)	.
(4D#	.	.
4F#	.	.
=29	=29	=29
4E	2B] 2a]	.
4G)	.	.
(4EE	(4B- [4g	fz
=30	=30	=30
4FF#)	(>[2.A 2.g])	.
(4C#	.	.
4E	.	.
=31	=31	=31
*	*^	*
4D	2A] 2f#)	2ryy	.
4F#)	.	.	.
(4GG	(4f#	[4Bn	fz
=32	=32	=32	=32
4G	4e	2B]	.
4E)	4d)	.	.
(4AA	(4g	[4c#	fz
!!LO:LB:g=z
=33	=33	=33	=33
4A	4f#	2c#]	.
4F#)	4e)	.	.
(4BB	(4a	[4d	fz
=34	=34	=34	=34
4B	4g	2d]	.
4G)	4f#)	.	.
4C#`	4b`	4e	fz
*	*v	*v	*
=35	=35	=35
(4c#	4e (4a	<
4d	4fn 4g#	.
4c#	4e 4a	.
=36	=36	=36
4B	4g#/ 4dd/	.
4A)	4a 4cc#)	.
4D` 4d`	4ff#`	fz
=37	=37	=37
*^	*	*
(2A 2c#	2.E	(2a	f
4d)	.	8bL	.
.	.	8g#J	.
=38	=38	=38	=38
(4AA^	[2.AA	4a)	.
4BB	.	4r	.
4C#	.	4gn [4ee	fz
=39	=39	=39	=39
2D	2.AA_	(>4e# 4ee]	.
.	.	4f# 4dd	.
4E	.	4en 4cc#	.
=40	=40	=40	=40
4Fn	2.AA_	4d 4b	.
4E	.	4c# 4a	.
4D	.	4B 4g#	.
!!LO:LB:g=z
=41	=41	=41	=41
4C#X)	2.AA_	4A 4a)	fz
(4D	.	4B (>4g#	.
4E	.	4c# 4a	.
=42	=42	=42	=42
4Fn	2.AA_	4d 4b	.
4E	.	4c# 4a	.
4D	.	4B 4g#	.
=43	=43	=43	=43
4C#)	2.AA_	4A 4a)	fz
(4D	.	4B (>4g#	.
4E	.	4c# 4a	.
=44	=44	=44	=44
4Fn	2.AA_	4d 4b	.
4E	.	4c# 4a	.
4D	.	4B 4g#	.
=45	=45	=45	=45
4C#)	4AA]	4A 4a)	fz
4CC#`	2ryy	4c#` 4a`	.
4EE`	.	4c#` 4a`	.
*v	*v	*	*
=46	=46	=46
2AAA	2c# 2a	.
(4B 4d	(4gn	p
=47	=47	=47
*^	*	*
2ryy	2A# 2c#)	4f#	.
.	.	4e#	.
(4A#	(4F#	4f#	.
=48	=48	=48	=48
2B	[2.Gn)	4en	.
.	.	4d)	.
4c#	.	(4dd	.
!!LO:LB:g=z
=49	=49	=49	=49
2c#	2.G_	4cc#	.
.	.	4b	.
4c#	.	4an	.
=50	=50	=50	=50
2B)	2G]	4g	.
.	.	4f#)	.
4ryy	4G` 4B`	4e#`>	fz
*v	*v	*	*
=51	=51	=51
[2.F# [2.A# [2.c#	(4f#	<
.	4a#	.
.	4cc#	.
=52	=52	=52
2F#] 2A#] 2c#]	4ee#	.
.	4ff#)	.
4En` 4F#` 4c#`	4a#`>	fz
=53	=53	=53
[2.D [2.F# [2.B	(4b	.
.	4dd	.
.	4ff#	.
=54	=54	=54
2D] 2F#] 2B]	4aa#	.
.	4bb)	.
*clefG2	*	*
(4d#^	4ccn^ (4aan^	f
=55	=55	=55
4e)	4b 4gg)	.
(4e#^>	4dd^ (4bb^	.
4f#)	4cc#X 4aa#)	.
=56	=56	=56
(4gn	4ee (4ccc#	.
4g#;)	4ee#; 4ddd;)	fz
*clefF4	*	*
(4E#	[4b 4[dd	.
!!LO:LB:g=z
=57	=57	=57
2F#)	4b] (4dd]	.
.	4cc# 4een)	.
4FF#`	4e`> 4a#`>	fz
=58	=58	=58
(4GG	[2.d [2.b	.
4BB	.	.
4D/	.	.
=59	=59	=59
4F#	2d] 2b]	.
4G)	.	.
4DD#`	(>[4f# 4an	fz
=60	=60	=60
(4EE	2.f#] [2.g)	.
4GG	.	.
4BB	.	.
=61	=61	=61
4D#	2e 2g]	.
4E)	.	.
4Dn` 4Fn`	4g#`	fz
=62	=62	=62
[2.C# [2.E	(4a	.
.	4cc#	.
.	4ee	.
=63	=63	=63
2.C#] 2.E]	4gg#	.
.	4aa)	.
.	(4bb	fz
=64	=64	=64
2.C# 2.E 2.G 2.A	4ggn	.
.	4ee)	.
.	(8gg^L	ff
.	8eeJ	.
!!LO:LB:g=z
=65	=65	=65
2.C# 2.E 2.G 2.A	8cc#L	.
.	8ee	.
.	8cc#	.
.	8gJ)	.
.	(8cc#^L	.
.	8gJ	.
=66	=66	=66
2.C# 2.E 2.G 2.A	8eL	.
.	8g	.
.	8e	.
.	8c#J)	.
.	(>8e^L	.
.	8c#J	.
=67	=67	=67
4rGG	8G<L	.
.	8c#<	.
4rGG	8G<	.
.	8E<J)	.
(8GGL	(8G<^L	.
8EEJ	8E<J	.
=68	=68	=68
8CC#L	8C#<L	.
8EE	8E<	>
8CC#	8C#<	.
8AAA	8AA<	.
8BBB	8BB<	.
8CC#J)	8C#<J)	]]
=69	=69	=69
(<4DD	(4D<	mf
4FF#	4F#<	.
4AA	4A<	.
=70	=70	=70
4C#	4c#	.
4D	4d	.
4F#	4f#	.
=71	=71	=71
4.A	4.a	.
8dL	8ddL	.
8f#	8ff#	.
8dJ	8ddJ	.
!!LO:LB:g=z
=72	=72	=72
4A)	4a)	.
4r	4r	.
(4FF#	(4A [4a	fz
=73	=73	=73
4GG)	(>[2.B 2.a])	.
(4D#	.	.
4F#	.	.
=74	=74	=74
4E	2B] 2g)	.
4G)	.	.
(4EE	(4B- [4g	fz
=75	=75	=75
4FF#)	(>[2.A 2.g])	.
(4C#	.	.
4E	.	.
=76	=76	=76
*	*^	*
4D	2A] 2f#)	2ryy	.
4F#)	.	.	.
(4GG	(4f#	[4Bn	fz
=77	=77	=77	=77
4G	4e	2B]	<
4E)	4d)	.	.
(4AA	(4g	[4c#	fz
=78	=78	=78	=78
4A	4f#	2c#]	.
4F#)	4e)	.	.
(4BB	(4a	[4d	fz
=79	=79	=79	=79
4B	4g	2d]	.
4G)	4f#)	.	.
4C#`	4b`	4e	fz
*	*v	*v	*
!!LO:LB:g=z
=80	=80	=80
(4c#	4e (4a	f
4d	4fn 4g#	.
4c#	4e 4a	.
=81	=81	=81
4B	4g# 4dd	.
)4A	4a 4cc#)	.
*clefG2	*	*
4gn`	4b` 4ee`	fz
=82	=82	=82
(4f#	4a (4dd	.
4g	4b- 4cc#	.
4f#	4a 4dd	.
=83	=83	=83
4e	4cc# 4gg	.
4d)	4dd 4ff#)	.
*clefF4	*	*
(4F#	(<4a [4aa	> ]]
=84	=84	=84
4G	([2.b) 2.aa]	mf
4B	.	.
4d#	.	.
*clefG2	*	*
=85	=85	=85
*	*^	*
4e	4gg	2.b]	.
4g)	4ee)	.	.
(4g#	(4dd	.	.
*	*v	*v	*
=86	=86	=86
4a	4a 4cc#	.
4A)	4ee 4ggn)	.
[4a	4dd (4ff#	.
=87	=87	=87
(4a]	4cc# 4ee	.
4A)	4ff# 4aa)	.
[4a	4ee (4gg	.
!!LO:LB:g=z
=88	=88	=88
(4a]	4dd 4ff#	.
4A)	4gg' 4bb')	.
[4a	4ff# (4aa	.
=89	=89	=89
(4a]	4ee 4gg	.
)4A	4ff#' 4aa')	.
(4a	4ee (4gg	.
=90	=90	=90
*	*^	*
4a#	2ryy	2dd 2ff#)	f
4b/)	.	.	.
(4B	[4ddd	(4aan	fz
=91	=91	=91	=91
4b/	2ddd]	4gg	.
4g)	.	4bb)	.
(4A	[4ccc#	(4gg	fz
=92	=92	=92	=92
4a	2ccc#]	4ff#	.
4f#)	.	4aa)	.
(4G	[4bb	(4ff#	fz
=93	=93	=93	=93
4g	2bb]	4ee	.
4e)	.	4gg)	.
*clefF4	*	*	*
(4F#	[4aa	(4ee	fz
=94	=94	=94	=94
4f#	2aa]	4dd	.
4d)	.	4ff#)	.
(4G	(4gg	4ee	.
=95	=95	=95	=95
2A)	4ff#	4dd	.
.	4aa)	4ff#	.
(4A	(4cc#	[4g	fz
=96	=96	=96	=96
4B	4ee	4g]	.
4d)	4dd)	4f#	.
(4F#	4ccn	([4a	fz
!!LO:LB:g=z
=97	=97	=97	=97
4G	2b	4a]	.
4B)	.	4g)	.
(4D#	4a	([4f#	fz
=98	=98	=98	=98
4E	2g	4f#]	.
4C#)	.	4e)	.
(4Dn	(4f#	4d	.
*	*v	*v	*
=99	=99	=99
2GG 2G)	4e	.
.	4b/)	.
4AA` 4E`	4c#`	.
=100	=100	=100
*^	*	*
(4D^	[2.D	4d	.
4E	.	4r	.
4F#	.	4ccn [4aa	fz
=101	=101	=101	=101
2G	2.D_	(4a# 4aa]	.
.	.	4b 4gg	.
4A	.	4an 4ff#	.
=102	=102	=102	=102
4B-	2.D_	4g 4ee	.
4A	.	4f# 4dd	.
4G	.	4e 4cc#X	.
=103	=103	=103	=103
4F#X)	2.D_	4d 4dd)	fz
(4G	.	(4e 4cc#	.
4A	.	4f# 4dd	.
=104	=104	=104	=104
4B-)	2.D_	4g/) 4ee/	.
(4A	.	(4f# 4dd	.
4G	.	4e 4cc#	.
=105	=105	=105	=105
4F#)	2.D_	4d) 4dd	fz
(4G	.	(<4e 4cc#	.
4A	.	4f# 4dd	.
!!LO:LB:g=z
=106	=106	=106	=106
4B-)	2.D_	4g/ 4ee/)	.
(4A	.	(4f# 4dd	.
4G	.	4e 4cc#	.
=107	=107	=107	=107
4F#)	4D]	4d 4dd)	.
4FF#`	2ryy	4f#` 4dd`	.
4AA`	.	4f#` 4dd`	.
*v	*v	*	*
=108	=108	=108
4DD	4f# 4dd	.
4r	4r	.
(4B 4d	(4gn	p
=109	=109	=109
*^	*	*
2A# 2c#)	2ryy	4f#	.
.	.	4e#	.
(4A#	(4F#	4f#	.
=110	=110	=110	=110
2B	[2.Gn)	4en	.
.	.	4d)	.
4c#	.	(4dd	.
=111	=111	=111	=111
2d	2.G_	4cc#	.
.	.	4b	.
4c#	.	4an	.
=112	=112	=112	=112
2B)	2G]	4g	.
.	.	4f#)	.
4G` 4B`	4ryy	4e#`	fz
*v	*v	*	*
=113	=113	=113
[2.F# [2.A# [2.c#	(4f#	<
.	4a#	.
.	4cc#	.
=114	=114	=114
2F#] 2A#] 2c#]	4ee#	.
.	4ff#)	.
4En` 4F#` 4c#`	4a#`	fz
!!LO:LB:g=z
=115	=115	=115
[2.D [2.F# [2.B	(4b	.
.	4dd	.
.	4ff#	.
=116	=116	=116
2D] 2F#] 2B]	4aa#	.
.	4bb)	.
*clefG2	*	*
(4d#^>	4ccn^ (4aan^	f
=117	=117	=117
4e)	4b 4gg)	.
(4e#^>	4dd^ (4bb^	.
4f#)	4cc# 4aa#)	.
=118	=118	=118
(4gn	4ee (4ccc#	.
4g#;)	4ee#; 4ddd;)	fz
*clefF4	*	*
(4E#	[4b [4dd	mf
=119	=119	=119
2F#)	(4b] 4dd]	.
.	4cc# 4een)	.
!	!	!LO:DY:rj
4FF#`	4e` 4a#`	fz
=120	=120	=120
(4GG	[2.d [2.b	.
4BB	.	.
4D	.	.
=121	=121	=121
4F#	2d] 2b]	.
4G)	.	.
4DD#`	(>[4f# 4an	fz
=122	=122	=122
(<4EE	2.f#] )[2.g	.
4GG	.	.
4BB	.	.
!!LO:LB:g=z
=123	=123	=123
4D#	2e 2g]	.
4E)	.	.
4Dn` 4Fn`	4g#`	fz
=124	=124	=124
[2.C# [2.E	(4a	.
.	.	<
.	4cc#	.
.	4ee	.
=125	=125	=125
2.C#] 2.E]	4gg#	.
.	4aa)	.
.	(4bb	fz
=126	=126	=126
2.C# 2.E 2.G 2.A	4ggn	.
.	4ee)	.
.	(8gg^L	ff
.	8eeJ	.
=127	=127	=127
2.C# 2.E 2.G 2.A	8cc#L	.
.	8ee	.
.	8cc#	.
.	8gJ)	.
.	(8cc#^L	.
.	8gJ	.
=128	=128	=128
2.C# 2.E 2.G 2.A	8eL	.
.	8g	.
.	8e	.
.	8c#J)	.
.	(>8e^L	.
.	8c#J	.
=129	=129	=129
4rGG	8G<L	.
.	8c#<	.
4rGG	8G<	.
.	8E<J)	.
(8GGL	(8G<^L	.
8EEJ	8E<J	.
!!LO:LB:g=z
=130	=130	=130
8CC#L	8C#<L	.
8EE	8E<	.
8CC#	8C#<	.
8AAA	8AA<	>
8BBB	8BB<	.
8CC#J)	8C#<J)	]]
=131	=131	=131
(<4DD	(4D<	mf
4FF#	4F#<	.
4AA	4A<	.
=132	=132	=132
4C#	4c#	.
4D	4d	.
4F#	4f#	.
=133	=133	=133
4.A	4.a	>
.	.	]
8dL	8ddL	.
8f#	8ff#	.
8dJ	8ddJ	.
=134	=134	=134
4A)	4a)	.
4r	4r	.
(4FF#	(4A [4a	fz
=135	=135	=135
4GG)	(>)[2.B 2.a]	.
(4D#	.	.
4F#	.	.
=136	=136	=136
4E	2B] 2g)	.
4G)	.	.
(4EE	(4B- [4g	fz
!!LO:LB:g=z
=137	=137	=137
4FF#)	(>)[2.A 2.g]	.
(4C#	.	.
4E	.	.
=138	=138	=138
4D	2A] 2f#)	.
4F#)	.	.
(4GG	(>[4Bn 4f#	fz
=139	=139	=139
*	*^	*
4G	4e	2B]	.
4E)	)4d	.	.
(4AA	(4g	[4c#	fz
=140	=140	=140	=140
4A	4f#	2c#]	.
4F#)	4e)	.	.
(4BB	(4a	[4d	fz
=141	=141	=141	=141
4B	4g	2d]	.
4G)	4f#)	.	.
4C#`	4b`	4e	fz
*	*v	*v	*
=142	=142	=142
(4c#	4e (4a	f
4d	4fn 4g#	.
4c#	4e 4a	.
=143	=143	=143
4B	4g# 4dd	.
4A)	4a 4cc#)	.
*clefG2	*	*
4gn`	4b` 4ee`	fz
=144	=144	=144
(4f#	4a (4dd	.
4g	4b- 4cc#	.
4f#	4a 4dd	.
!!LO:LB:g=z
=145	=145	=145
4e	4cc# 4gg	.
)4d	4dd 4ff#)	.
*clefF4	*	*
(4F#	(<4a [4aa	> ]
=146	=146	=146
4G	([2.b) 2.aa]	.
4B	.	.
4d#	.	.
*clefG2	*	*
=147	=147	=147
*	*^	*
4e	4gg	2.b]	.
4g)	4ee)	.	.
(4g#	(4dd	.	.
*	*v	*v	*
=148	=148	=148
4a	4a 4cc#	.
4A)	4ee 4ggn)	.
([4a	4dd (4ff#	.
=149	=149	=149
4a]	4cc# 4ee	.
4A)	4ff# 4aa)	.
([4a	4ee (4gg	.
=150	=150	=150
4a]	4dd 4ff#	.
4A)	4gg 4bb)	.
([4a	4ff# (4aa	.
=151	=151	=151
4a]	4ee 4gg	.
4A)	4ff# 4aa)	.
(4a	4ee (4gg	.
=152	=152	=152
*	*^	*
4a#	2dd 2ff#)	2ryy	.
4b/)	.	.	.
(<4B	[4ddd	(4aan	fz
!!LO:LB:g=z
=153	=153	=153	=153
4b	2ddd]	4gg	.
(4g)	.	4bb)	.
4A	[4ccc#	(4gg	fz
=154	=154	=154	=154
4a	2ccc#]	4ff#	.
4f#)	.	4aa)	.
(4G	[4bb	(4ff#	fz
=155	=155	=155	=155
4g	2bb]	4ee	.
4e)	.	4gg)	.
*clefF4	*	*	*
(4F#	[4aa	(4ee	fz
=156	=156	=156	=156
4f#	2aa]	4dd	.
4d)	.	4ff#)	.
(4G	(4gg	4ee	.
=157	=157	=157	=157
2A)	4ff#	4dd	.
.	4aa)	4ff#	.
(4A	(4cc#	[4g	fz
=158	=158	=158	=158
4B	4ee	4g]	.
4d)	4dd)	4f#	.
(4F#	4ccn	([4a	fz
=159	=159	=159	=159
4G	2b	4a]	.
4B)	.	4g)	.
(4D#	4a	([4f#	fz
=160	=160	=160	=160
4E	2g	4f#]	.
4C#)	.	4e)	.
(4Dn	(4f#	4d	.
*	*v	*v	*
=161	=161	=161
2GG 2G)	4e	.
.	4b/)	.
4AA` 4E`	4c#`	.
!!LO:LB:g=z
=162	=162	=162
*^	*	*
(4D^	[2.D	4d	.
4E	.	4r	.
4F#	.	4ccn [4aa	fz
=163	=163	=163	=163
2G	2.D_	(4a# 4aa]	.
.	.	4b 4gg	.
4A	.	4an 4ff#	.
=164	=164	=164	=164
4B-	2.D_	4g 4ee	.
4A	.	4f# 4dd	.
4G	.	4e 4cc#X	.
=165	=165	=165	=165
4F#X)	2.D_	4d )4dd	fz
(4G	.	(4e 4cc#	.
4A	.	4f# 4dd	.
=166	=166	=166	=166
4B-)	2.D_	4g/) 4ee/	.
(4A	.	(4f# 4dd	.
4G	.	4e 4cc#	.
=167	=167	=167	=167
4F#)	2.D_	4d) 4dd	fz
(4G	.	(4e 4cc#	.
4A	.	4f# 4dd	.
=168	=168	=168	=168
4B-)	2.D_	4g/) 4ee/	.
(4A	.	(4f# 4dd	.
4G	.	4e 4cc#	.
=169	=169	=169	=169
4F#)	4D]	4d) 4dd	.
4FF#`	2ryy	4f#` 4dd`	.
4AA`	.	4f#` 4dd`	.
*v	*v	*	*
=170	=170	=170
4DD	4f# 4dd	.
4r	4r	.
4r	4r	.
==	==	==
*-	*-	*-
!!!RDF**kern: > = above
!!!RDF**kern: < = below
!!!PPR: Universal Edition 1-4
!!!PTL: Haydn Piano Sonatas, Vol. 1, No. 10
!!!YOY: 1901
!!!ONB: Stich und Druck von Jos. Eberle & Co. Wien VII. Seidengasse 3-9
!!!ONM-ue: I:10.2
!!!YEC: 2021 Craig Stuart Sapp
!!!YEM: Licence: (CC BY-NC-SA 4.0) https://creativecommons.org/licenses/by-nc-sa/4.0
!!!YER: 2021
!!!ENC: Craig Stuart Sapp
!!!END: 2008/07/05
!!!EED: Craig Stuart Sapp
!!!EEV: 2021/02/02
!!!YEC: 2021 Craig Stuart Sapp
!!!URL: https://github.com/craigsapp/haydn-keyboard-sonatas
!!!URL-vhv: https://verovio.humdrum.org?file=haydn/sonatas/sonata61-2.krn
!!!URL-pdf: https://github.com/craigsapp/haydn-keyboard-sonatas/raw/master/reference-edition/sonata61-2.pdf
!!!title: @{OTL}, mvmt. @{OMV} (@{SCT}), UE @ONM-ue
